X:127
T:Synnwyr Solomon - The Wisdom of Solomon
M:6/8
L:1/8
Q:120
C:Trad.
R:Jig
K:D
E | E2 B B2 B | BAG FED | E2 F GAB | AGF E
2 :|| B | B2 c d3 | dcB ABB | B2 c
d2 d | cBA B3 | Edc B2 B | BAG F
E2 | E2 E B2 B | AGF E2 ||
